X: 10662
T: JENKINS' HORNPIPE
N: Arranged by W.B. Laybourn
R: hornpipe, reel
B: K\"ohler's Violin Repository, v.1, 1885 p.66 #2
F: http://www.archive.org/details/klersviolinrepos01edin
Z: 2012 John Chambers <jc:trillian.mit.edu>
M: C|
L: 1/8
K: Bb
|:\
vBcde f(BAB) | gBaB b(BAB) | GBFB EBDB | C(cec) BAGF |\
 Bcde f(BAB) | gBaB b(BAB) | GBFB EBDB | C(ec)A B2z2 :|
|:\
vf(BAB) g(BAB) | (ga)ba (gf)ed | (ed)ef (ge)cB | (AB){d}cB (AF)GA |\
 Bcde f(BAB) | gBaB b(BAB) | GBFB EBDB | C(ec)A B2z2 :|

%%sep 2 1 500

